X: 1
T:The Northern Light -- Reel
M:2/4
L:1/16
R:reel
B:Ryan's Mammoth Collection
N:385
Z:Contributed by Ray Davies,  ray:davies99.freeserve.co.uk
K:G
u(Bc)|\
vd2 kd4 (kd2 | d2)vd"4"e dBGD | FGAB cdef | gfge d2(Bc) |
 d2 kd4 (kd2 | d2)vd"4"e dBGD | FGAB cdef | g2gf g2:|
|:ud2|\
g3a bgaf | gfge dBG2 | g3a bagf | eaab (a2b) z|
g3a bgaf | gfge dBGB | cBcA Bdgb | adef g2:|
